dist/img/sprites/qa.svg

<svg width="75" height="75" viewBox="0 0 75 75" fill="none" xmlns="http://www.w3.org/2000/svg">
<path d="M3.40883 63.4339L3.40866 63.4331C5.40193 62.5595 7.39516 61.6839 9.38638 60.8064L9.38654 60.8063L10.0073 60.5332C12.8152 59.2981 15.703 58.0279 18.5511 56.7887C19.0633 56.5653 19.7317 56.5352 20.3399 56.6922C21.9201 57.0979 23.5716 57.5575 25.3903 58.1009L25.3913 58.1012C25.5958 58.1632 26.3458 58.419 26.7705 59.0553C31.0632 65.4704 37.2627 69.3167 45.2114 70.4896C49.522 71.1258 53.871 70.7054 58.1403 69.236C58.3552 69.1613 58.5929 69.1286 58.8316 69.1286C59.1786 69.1286 59.542 69.1986 59.8669 69.3411M3.40883 63.4339L71.1607 74.6085L71.2671 74.3822C68.2318 72.9545 65.1053 71.6049 62.0846 70.301L62.0822 70.3L62.0798 70.2989C61.3412 69.9802 60.603 69.6616 59.8669 69.3411M3.40883 63.4339C2.97651 63.623 2.64259 63.7144 2.38074 63.7317C1.6835 63.7763 1.06562 63.489 0.675394 62.9527C0.254532 62.371 0.167523 61.5752 0.468123 60.8205L0.468182 60.8203C2.12832 56.6445 3.89212 52.2792 5.71373 47.844L5.71377 47.8439C5.88975 47.4149 5.96516 47.0106 5.91842 46.61C5.87166 46.2093 5.70527 45.8346 5.43386 45.4603C-1.34959 36.0833 -1.48724 23.4319 5.08967 13.9794L5.08968 13.9794C9.97217 6.96084 16.9129 2.53752 25.731 0.829862L25.7312 0.829823C26.6178 0.657386 27.5429 0.540498 28.4497 0.425914L28.5312 0.415615L28.5315 0.415573L28.532 0.415509C28.9563 0.362444 29.3826 0.309128 29.8072 0.25H34.1028C34.1072 0.25114 34.1115 0.252195 34.1153 0.25316L34.1167 0.253497C34.1313 0.25715 34.1412 0.259655 34.1505 0.262311L34.1505 0.262364L34.1555 0.2637L34.1637 0.265839C34.3124 0.305005 34.504 0.355498 34.7238 0.371048L34.7241 0.37107C38.288 0.61871 41.5653 1.37316 44.4649 2.60759C55.599 7.34969 61.8078 15.06 63.4841 26.1926C63.6163 27.0722 64.0038 27.6912 64.7515 28.2292C69.5801 31.7072 72.7215 36.2477 74.0957 41.7263C74.2885 42.5001 74.4258 43.3182 74.5605 44.1211L74.5641 44.1423L74.5641 44.1424C74.5763 44.2152 74.5886 44.2882 74.6008 44.3613C74.6487 44.6477 74.697 44.9363 74.75 45.2247V48.667C74.7095 48.765 74.6643 48.899 74.6494 49.0605L74.6493 49.061C74.2986 52.949 72.9353 56.6257 70.5928 59.9866L70.5925 59.9871C70.4367 60.2117 70.3472 60.4954 70.3185 60.7769C70.2897 61.0588 70.32 61.3581 70.4241 61.6183C71.5079 64.3394 72.6227 67.093 73.7091 69.7767C73.824 70.0604 73.9385 70.3432 74.0526 70.6252C74.0526 70.6252 74.0526 70.6253 74.0526 70.6253L74.75 72.3494V73.1901C74.4637 73.928 74.0486 74.3864 73.5376 74.6014L3.40883 63.4339ZM59.8669 69.3411L59.7665 69.5701L59.8663 69.3409C59.8665 69.341 59.8667 69.341 59.8669 69.3411ZM4.35124 28.7911C4.58051 21.9917 7.37103 16.1914 12.6371 11.5586C19.1297 5.84662 26.952 3.50738 35.8664 4.60476C43.0248 5.48578 49.0452 8.64631 53.7468 13.9927C60.597 21.7805 61.5399 32.9548 56.0922 41.7946C55.607 42.5833 55.4027 43.1021 55.5296 43.6846L55.5297 43.685C55.6337 44.1653 55.8177 44.5241 56.0806 44.7893C56.3436 45.0546 56.7026 45.2435 57.1855 45.3552C57.9214 45.525 58.7639 45.171 59.2181 44.4731L59.2181 44.4731C61.115 41.5609 62.4305 38.3765 63.1318 35.0064L63.132 35.0054C63.1582 34.8822 63.1856 34.7598 63.2174 34.6179C63.2272 34.5741 63.2374 34.5284 63.2482 34.4803L63.2482 34.4801L63.6349 32.7528L63.7425 32.2723L64.0669 32.6427L64.9719 33.6759L64.9726 33.6766C65.1622 33.8948 65.3483 34.1004 65.5327 34.3041L65.5553 34.3291L65.5556 34.3294C65.9593 34.7771 66.3459 35.2063 66.7089 35.6711L4.35124 28.7911ZM4.35124 28.7911L4.34257 28.7932L4.33753 28.9831C4.18635 34.6768 6.02437 39.889 9.78841 44.469L9.78852 44.4692C10.2125 44.9844 10.4432 45.4445 10.5166 45.9029C10.5898 46.3598 10.5115 46.8435 10.2661 47.4151C9.53681 49.1107 8.84516 50.8491 8.17609 52.5307L8.11071 52.695C7.8376 53.3812 7.56462 54.067 7.28967 54.7528L7.28939 54.7535C7.21667 54.9365 7.15682 55.1143 7.09116 55.3114L7.09069 55.3128C7.05945 55.4085 7.02416 55.5126 6.98274 55.631L6.98263 55.6313L6.49425 57.0335L6.31933 57.5357L6.81765 57.35L8.2068 56.8322C8.20718 56.8321 8.20755 56.8319 8.20792 56.8318C8.2549 56.8148 8.29411 56.8003 8.32899 56.7875C8.36803 56.773 8.40164 56.7606 8.43462 56.749L8.43675 56.7482L8.4695 56.7362C8.5751 56.6977 8.66014 56.6667 8.74171 56.63M4.35124 28.7911L33.6152 58.7263M8.74171 56.63C8.74136 56.6302 8.74101 56.6303 8.74067 56.6305L8.64001 56.4017L8.74265 56.6296C8.74234 56.6297 8.74202 56.6299 8.74171 56.63ZM8.74171 56.63C9.26859 56.3983 9.79531 56.1674 10.3227 55.9362C10.621 55.8055 10.9194 55.6747 11.2182 55.5435L11.2183 55.5435C11.4212 55.4544 11.6246 55.3651 11.8286 55.2755C13.9998 54.3224 16.2308 53.3429 18.4219 52.3634M18.4219 52.3634C19.0971 52.0622 19.7268 52.049 20.4284 52.3257L20.4277 52.3254L20.5206 52.0933M18.4219 52.3634C18.4219 52.3634 18.4218 52.3635 18.4218 52.3635L18.3199 52.1352M18.4219 52.3634L18.3199 52.1352M20.5206 52.0933L20.4289 52.3259L20.5473 52.3733L20.5485 52.3737C21.4319 52.7221 22.3598 53.0877 23.316 53.3628L23.3161 53.3628C30.8714 55.5317 38.2524 54.9246 45.2415 51.5566L45.2417 51.5565C45.8766 51.25 46.482 51.1936 46.9865 51.3383C47.4881 51.4821 47.9129 51.8309 48.1839 52.3812C48.4548 52.9314 48.4714 53.4806 48.2788 53.9651C48.085 54.4524 47.67 54.8966 47.039 55.2104L47.039 55.2104C43.745 56.8496 40.2196 57.9205 36.5574 58.3917L36.5572 58.3917C36.0012 58.4639 35.442 58.5251 34.8532 58.5896C34.7781 58.5979 34.7025 58.6061 34.6265 58.6145C34.5418 58.6238 34.4565 58.6331 34.3704 58.6425C34.1251 58.6693 33.8739 58.6967 33.6152 58.7263M20.5206 52.0933C19.7571 51.7921 19.0575 51.8061 18.3199 52.1352M20.5206 52.0933L20.6402 52.1412C21.5253 52.4902 22.4422 52.8512 23.3851 53.1225L18.3199 52.1352M33.6152 58.7263L33.6431 58.9747M33.6152 58.7263L33.6431 58.9747M33.6431 58.9747L33.6147 58.7263L32.0883 58.8978L31.5406 58.9593L31.9476 59.3309L33.0839 60.3681L33.0845 60.3686C33.2 60.4734 33.3038 60.5714 33.4025 60.6646L33.4275 60.6882L33.6431 58.9747ZM33.6431 58.9747L32.4464 59.1091L36.5893 58.6396C36.0306 58.7122 35.4686 58.7737 34.8799 58.8382C34.805 58.8464 34.7296 58.8547 34.6538 58.863C34.5686 58.8724 34.4829 58.8817 34.3965 58.8911C34.1514 58.9179 33.9011 58.9452 33.6431 58.9747ZM18.3199 52.1352C16.1294 53.1144 13.899 54.0936 11.7275 55.0469C11.5237 55.1364 11.3205 55.2256 11.1178 55.3146L18.3199 52.1352ZM64.7839 33.8406L64.0829 33.0403L64.1228 32.862L63.8789 32.8074L63.6908 32.9721L63.8112 33.1096L63.4921 34.5347C63.4463 34.7402 63.4104 34.8977 63.3765 35.0573L64.7839 33.8406ZM64.7839 33.8406C64.9751 34.0606 65.1626 34.2678 65.3465 34.471M64.7839 33.8406L65.3465 34.471M68.0636 66.6999L68.0636 66.7001L68.7055 68.2918L68.9354 68.862L68.3728 68.6141L66.802 67.9219L66.8019 67.9219C66.3442 67.7198 65.8952 67.5243 65.453 67.3319C65.2411 67.2396 65.0308 67.1481 64.8218 67.0568C63.3294 66.4088 61.9162 65.7948 60.5143 65.1285L60.5141 65.1283C60.0309 64.8979 59.5805 64.7829 59.1087 64.7744C58.6348 64.7659 58.1256 64.8646 57.5247 65.0801C54.5129 66.1618 51.5779 66.7045 48.7291 66.7045C43.5031 66.7045 38.5933 64.8799 34.061 61.2543L34.0608 61.2541C33.8405 61.0774 33.6443 60.8932 33.4276 60.6884L68.0636 66.6999ZM68.0636 66.6999C67.8368 66.1387 67.624 65.5973 67.4167 65.0687C66.9585 63.9007 66.5218 62.79 66.0305 61.6985C65.7612 61.0997 65.6722 60.5883 65.7471 60.101M68.0636 66.6999L65.7471 60.101M65.7471 60.101C65.8223 59.6116 66.0674 59.1174 66.5187 58.562L65.7471 60.101ZM65.3465 34.471L65.3699 34.4968L65.3465 34.471ZM44.5629 2.37758C41.6346 1.13095 38.3296 0.370998 34.7415 0.121671L44.5629 2.37758ZM6.83712 56.8091L6.64302 56.8815L6.73034 57.1157L6.96643 57.198L7.03456 57.0023L8.12172 56.5971C8.16528 56.5814 8.20452 56.5669 8.24026 56.5537L6.83712 56.8091Z" fill="#4B8125" stroke="white" stroke-width="0.5"/>
<path d="M31.9892 37.3209C32.5195 37.3194 33.0375 37.1118 33.4227 36.7499C33.7774 36.416 33.9712 35.9861 33.9798 35.539L34.229 35.5438L33.9798 35.5393C33.9997 34.4334 34.3451 33.6249 34.8412 33.0191C35.3328 32.4186 35.961 32.0311 36.5245 31.7446C39.9977 29.9786 42.0124 26.9704 42.2225 23.2655C42.2324 19.8544 40.8281 16.7264 38.3751 14.6744L38.5171 14.5046L38.3751 14.6744C36.0741 12.7496 33.0619 11.9596 30.1112 12.5065L31.9892 37.3209ZM31.9892 37.3209L31.8882 37.3165C30.8003 37.2701 29.9588 36.4054 29.9588 35.3583V35.3581C29.9578 33.7183 30.3209 32.3199 31.0319 31.161C31.7427 30.0024 32.8105 29.068 34.2435 28.3706C36.322 27.3594 37.5648 25.8961 38.0003 23.9007L38.0003 23.9006C38.374 22.1869 38.0249 20.4557 37.0174 19.0297L37.0174 19.0297C36.0136 17.6095 34.4396 16.6708 32.6984 16.4527C32.4541 16.4213 32.2083 16.4068 31.9653 16.4068C30.5356 16.4068 29.1269 16.9251 28.008 17.8765L31.9892 37.3209ZM22.6922 24.3176L22.6924 24.3177C23.2486 24.6781 23.9218 24.7324 24.5467 24.4635L22.6922 24.3176ZM22.6922 24.3176C22.1123 23.9426 21.7546 23.284 21.742 22.5507M22.6922 24.3176L21.742 22.5507M21.742 22.5507C21.6643 17.7299 25.2598 13.4065 30.1111 12.5065L21.742 22.5507ZM25.831 22.332C25.8934 20.6234 26.6876 18.9983 28.0079 17.8765L25.831 22.332ZM25.831 22.332C25.809 22.9146 25.693 23.3543 25.4877 23.6907M25.831 22.332L25.4877 23.6907M25.4877 23.6907C25.2845 24.0235 24.9813 24.2757 24.5467 24.4635L25.4877 23.6907Z" fill="#4B8125" stroke="white" stroke-width="0.5"/>
<path d="M31.8156 42.8032C30.6975 42.8107 29.7933 43.7318 29.8003 44.8554L31.8156 42.8032ZM31.8156 42.8032H31.8157H31.8157H31.8157H31.8158H31.8158H31.8158H31.8159H31.8159H31.816H31.816H31.816H31.8161H31.8161H31.8161H31.8162H31.8162H31.8163H31.8163H31.8163H31.8164H31.8164H31.8165H31.8165H31.8165H31.8166H31.8166H31.8166H31.8167H31.8167H31.8168H31.8168H31.8168H31.8169H31.8169H31.817H31.817H31.817H31.8171H31.8171H31.8172H31.8172H31.8172H31.8173H31.8173H31.8174H31.8174H31.8174H31.8175H31.8175H31.8176H31.8176H31.8176H31.8177H31.8177H31.8178H31.8178H31.8178H31.8179H31.8179H31.818H31.818H31.818H31.8181H31.8181H31.8182H31.8182H31.8182H31.8183H31.8183H31.8184H31.8184H31.8184H31.8185H31.8185H31.8186H31.8186H31.8186H31.8187H31.8187H31.8188H31.8188H31.8189H31.8189H31.8189H31.819H31.819H31.8191H31.8191H31.8191H31.8192H31.8192H31.8193H31.8193H31.8193H31.8194H31.8194H31.8195H31.8195H31.8196H31.8196H31.8196H31.8197H31.8197H31.8198H31.8198H31.8198H31.8199H31.8199H31.82H31.82H31.8201H31.8201H31.8201H31.8202H31.8202H31.8203H31.8203H31.8203H31.8204H31.8204H31.8205H31.8205H31.8206H31.8206H31.8206H31.8207H31.8207H31.8208H31.8208H31.8208H31.8209H31.8209H31.821H31.821H31.8211H31.8211H31.8211H31.8212H31.8212H31.8213H31.8213H31.8213H31.8214H31.8214H31.8215H31.8215H31.8216H31.8216H31.8216H31.8217H31.8217H31.8218H31.8218H31.8218H31.8219H31.8219H31.822H31.822H31.8221H31.8221H31.8221H31.8222H31.8222H31.8223H31.8223H31.8223H31.8224H31.8224H31.8225H31.8225H31.8225H31.8226H31.8226H31.8227H31.8227H31.8228H31.8228H31.8228H31.8229H31.8229H31.823H31.823H31.823H31.8231H31.8231H31.8232H31.8232H31.8232H31.8233H31.8233H31.8234H31.8234H31.8234H31.8235H31.8235H31.8236H31.8236H31.8236H31.8237H31.8237H31.8238H31.8238H31.8238H31.8239H31.8239H31.824H31.824H31.824H31.8241H31.8241H31.8242H31.8242H31.8242H31.8243H31.8243H31.8244H31.8244H31.8244H31.8245H31.8245H31.8245H31.8246H31.8246H31.8247H31.8247H31.8247H31.8248H31.8248H31.8249H31.8249H31.8249H31.825H31.825H31.825H31.8251H31.8251H31.8252H31.8252H31.8252H31.8253H31.8253H31.8254H31.8254H31.8254H31.8255H31.8255H31.8255H31.8256H31.8256H31.8256H31.8257H31.8257H31.8258H31.8258H31.8258H31.8259H31.8259H31.8259H31.826H31.826H31.826H31.8261H31.8261H31.8262H31.8262H31.8262H31.8263H31.8263H31.8263H31.8264H31.8264H31.8264H31.8265H31.8265H31.8265H31.8266H31.8266H31.8266H31.8267H31.8267H31.8267H31.8268H31.8268H31.8268H31.8269H31.8269H31.8269H31.827H31.827H31.827H31.8271H31.8271H31.8271H31.8272H31.8272H31.8272H31.8273H31.8273H31.8273H31.8274H31.8274H31.8274H31.8275H31.8275H31.8275H31.8276H31.8276H31.8276H31.8277H31.8277H31.8277H31.8278H31.8278H31.8278H31.8278H31.8279H31.8279H31.8279H31.828H31.828H31.828H31.8281H31.8281H31.8281H31.8281H31.8282H31.8282H31.8282H31.8283H31.8283H31.8283H31.8283H31.8284H31.8284H31.8284H31.8285H31.8285H31.8285H31.8285H31.8286H31.8286H31.8286H31.8286H31.8287H31.8287H31.8287H31.8288H31.8288H31.8288H31.8288H31.8289H31.8289H31.8289H31.8289H31.829H31.829H31.829H31.829H31.8291H31.8291H31.8291H31.8291H31.8292H31.8292H31.8292H31.8292H31.8292H31.8293H31.8293H31.8293H31.8293H31.8294H31.8294H31.8294H31.8294H31.8295H31.8295H31.8295H31.8295H31.8295H31.8296H31.8296H31.8296H31.8296H31.8296H31.8297H31.8297H31.8297H31.8297H31.8297H31.8298H31.8298H31.8298H31.8298H31.8298H31.8299H31.8299H31.8299H31.8299H31.8299H31.8299H31.83H31.83H31.83H31.83H31.83H31.8301H31.8301H31.8301H31.8301H31.8301H31.8301H31.8302H31.8302H31.8302H31.8302H31.8302H31.8302H31.8302H31.8303H31.8303H31.8303H31.8303H31.8303H31.8303H31.8303H31.8304H31.8304H31.8304H31.8304H31.8304H31.8304H31.8304H31.8304H31.8305H31.8305H31.8305H31.8305H31.8305H31.8305H31.8305H31.8305H31.8305H31.8305H31.8306H31.8306H31.8306H31.8306H31.8306H31.8306H31.8306H31.8306H31.8306H31.8306H31.8306H31.8307H31.8307H31.8307H31.8307H31.8307H31.8307H31.8307H31.8307H31.8307H31.8307H31.8307H31.8307H31.8307H31.8307H31.8307H31.8307H31.8307H31.8307H31.8308H31.8308H31.8308H31.8308H31.8308H31.8308H31.8308H31.8308H31.8308H31.8308H31.8308C32.9475 42.8032 33.8582 43.7059 33.8672 44.8209C33.8742 45.9458 32.9685 46.8655 31.8497 46.8749H31.8496H31.8496H31.8496H31.8496H31.8495H31.8495H31.8495H31.8495H31.8494H31.8494H31.8494H31.8494H31.8493H31.8493H31.8493H31.8493H31.8492H31.8492H31.8492H31.8492H31.8491H31.8491H31.8491H31.849H31.849H31.849H31.849H31.8489H31.8489H31.8489H31.8489H31.8488H31.8488H31.8488H31.8488H31.8487H31.8487H31.8487H31.8487H31.8486H31.8486H31.8486H31.8485H31.8485H31.8485H31.8485H31.8484H31.8484H31.8484H31.8484H31.8483H31.8483H31.8483H31.8482H31.8482H31.8482H31.8482H31.8481H31.8481H31.8481H31.8481H31.848H31.848H31.848H31.8479H31.8479H31.8479H31.8479H31.8478H31.8478H31.8478H31.8477H31.8477H31.8477H31.8477H31.8476H31.8476H31.8476H31.8475H31.8475H31.8475H31.8475H31.8474H31.8474H31.8474H31.8474H31.8473H31.8473H31.8473H31.8472H31.8472H31.8472H31.8472H31.8471H31.8471H31.8471H31.847H31.847H31.847H31.8469H31.8469H31.8469H31.8469H31.8468H31.8468H31.8468H31.8467H31.8467H31.8467H31.8467H31.8466H31.8466H31.8466H31.8465H31.8465H31.8465H31.8465H31.8464H31.8464H31.8464H31.8463H31.8463H31.8463H31.8462H31.8462H31.8462H31.8462H31.8461H31.8461H31.8461H31.846H31.846H31.846H31.8459H31.8459H31.8459H31.8459H31.8458H31.8458H31.8458H31.8457H31.8457H31.8457H31.8456H31.8456H31.8456H31.8456H31.8455H31.8455H31.8455H31.8454H31.8454H31.8454H31.8453H31.8453H31.8453H31.8452H31.8452H31.8452H31.8452H31.8451H31.8451H31.8451H31.845H31.845H31.845H31.8449H31.8449H31.8449H31.8448H31.8448H31.8448H31.8448H31.8447H31.8447H31.8447H31.8446H31.8446H31.8446H31.8445H31.8445H31.8445H31.8444H31.8444H31.8444H31.8443H31.8443H31.8443H31.8443H31.8442H31.8442H31.8442H31.8441H31.8441H31.8441H31.844H31.844H31.844H31.8439H31.8439H31.8439H31.8438H31.8438H31.8438H31.8437H31.8437H31.8437H31.8436H31.8436H31.8436H31.8436H31.8435H31.8435H31.8435H31.8434H31.8434H31.8434H31.8433H31.8433H31.8433H31.8432H31.8432H31.8432H31.8431H31.8431H31.8431H31.843H31.843H31.843H31.8429H31.8429H31.8429H31.8428H31.8428H31.8428H31.8427H31.8427H31.8427H31.8426H31.8426H31.8426H31.8425H31.8425H31.8425H31.8424H31.8424H31.8424H31.8424H31.8423H31.8423H31.8423H31.8422H31.8422H31.8422H31.8421H31.8421H31.8421H31.842H31.842H31.842H31.8419H31.8419H31.8419H31.8418H31.8418H31.8418H31.8417H31.8417H31.8417H31.8416H31.8416H31.8416H31.8415H31.8415H31.8415H31.8414H31.8414H31.8414H31.8413H31.8413H31.8413H31.8412H31.8412H31.8412H31.8411H31.8411H31.8411H31.841H31.841H31.841H31.8409H31.8409H31.8409H31.8408H31.8408H31.8408H31.8407H31.8407H31.8407H31.8406H31.8406H31.8405H31.8405H31.8405H31.8404H31.8404H31.8404H31.8403H31.8403H31.8403H31.8402H31.8402H31.8402H31.8401H31.8401H31.8401H31.84H31.84H31.84H31.8399H31.8399H31.8399H31.8398H31.8398H31.8398H31.8397H31.8397H31.8397H31.8396H31.8396H31.8396H31.8395H31.8395H31.8395H31.8394H31.8394H31.8394H31.8393H31.8393H31.8393H31.8392H31.8392H31.8392H31.8391H31.8391H31.839H31.839H31.839H31.8389H31.8389H31.8389H31.8388H31.8388H31.8388H31.8387H31.8387H31.8387H31.8386H31.8386H31.8386H31.8385H31.8385H31.8385H31.8384H31.8384H31.8384H31.8383H31.8383H31.8383H31.8382H31.8382H31.8382H31.8381H31.8381H31.838H31.838H31.838H31.8379H31.8379H31.8379H31.8378H31.8378H31.8378H31.8377H31.8377H31.8377H31.8376H31.8376H31.8376H31.8375H31.8375H31.8375H31.8374H31.8374H31.8374H31.8373H31.8373H31.8372H31.8372H31.8372H31.8371H31.8371H31.8371H31.837H31.837H31.837H31.8369H31.8369H31.8369H31.8368H31.8368H31.8368H31.8367H31.8367H31.8367H31.8366H31.8366H31.8366H31.8365H31.8365H31.8364H31.8364H31.8364H31.8363H31.8363H31.8363H31.8362H31.8362H31.8362H31.8361H31.8361H31.8361H31.836H31.836H31.836H31.8359H31.8359H31.8359H31.8358H31.8358H31.8357H31.8357H31.8357H31.8356H31.8356H31.8356H31.8355H31.8355H31.8355H31.8354H31.8354H31.8354H31.8353H31.8353H31.8353H31.8352H31.8352H31.8352H31.8351H31.8351H31.835H31.835H31.835H31.8349H31.8349H31.8349H31.8348H31.8348H31.8348C31.2995 46.8749 30.7941 46.6661 30.4075 46.2865C30.0198 45.9038 29.8039 45.3947 29.8003 44.8554L31.8156 42.8032Z" fill="#4B8125" stroke="white" stroke-width="0.5"/>
</svg>

<svg width="75" height="75" viewBox="0 0 75 75" fill="none" xmlns="http://www.w3.org/2000/svg"><path d="M3.409 63.434h0c1.993-.874 3.986-1.75 5.977-2.628h0l.621-.273c2.808-1.235 5.696-2.505 8.544-3.744.512-.224 1.18-.254 1.789-.097 1.58.406 3.232.865 5.05 1.409h.001c.205.062.955.318 1.38.954 4.292 6.415 10.492 10.262 18.44 11.435 4.311.636 8.66.215 12.93-1.254a2.12 2.12 0 01.69-.107c.348 0 .711.07 1.036.212M3.409 63.434L71.16 74.609l.106-.227c-3.035-1.428-6.162-2.777-9.182-4.081l-.003-.001-.002-.001c-.739-.319-1.477-.637-2.213-.958M3.409 63.434c-.432.189-.766.28-1.028.298-.697.044-1.315-.243-1.706-.78-.42-.581-.507-1.377-.207-2.131h0c1.66-4.176 3.424-8.542 5.246-12.977h0c.176-.43.251-.833.204-1.234-.046-.4-.213-.775-.484-1.15-6.784-9.377-6.921-22.028-.344-31.48h0C9.972 6.96 16.913 2.537 25.73.83h0c.887-.173 1.812-.29 2.719-.404l.081-.01h.001c.424-.054.85-.107 1.275-.166h4.296l.012.003h.002l.034.01h.005l.008.003c.148.039.34.09.56.105h0c3.564.248 6.841 1.002 9.74 2.237C55.6 7.35 61.809 15.06 63.485 26.193c.132.88.52 1.498 1.267 2.036 4.83 3.478 7.97 8.019 9.345 13.497.192.774.33 1.592.465 2.395l.003.021h0l.037.22c.048.286.096.574.149.863v3.442a1.35 1.35 0 00-.1.393v.001c-.351 3.888-1.715 7.565-4.057 10.926h0a1.705 1.705 0 00-.275.79c-.028.282.002.581.106.841 1.084 2.721 2.199 5.475 3.285 8.159l.344.848s0 0 0 0l.697 1.724v.841c-.286.738-.701 1.196-1.212 1.411L3.408 63.434zm56.458 5.907l-.1.23.1-.23s0 0 0 0zM4.35 28.791c.23-6.8 3.02-12.6 8.286-17.232 6.493-5.712 14.315-8.052 23.23-6.954 7.158.88 13.178 4.041 17.88 9.388 6.85 7.787 7.793 18.962 2.345 27.802-.485.788-.69 1.307-.562 1.89h0c.104.48.288.84.55 1.104.264.266.623.454 1.105.566.736.17 1.579-.184 2.033-.882h0a27.57 27.57 0 003.914-9.467h0c.026-.124.054-.246.085-.388l.031-.138h0l.387-1.727.108-.48.324.37.905 1.033h0c.19.219.376.424.56.628l.023.025h0c.404.448.79.877 1.154 1.342L4.35 28.791zm0 0l-.008.002-.005.19c-.152 5.694 1.686 10.906 5.45 15.486h0c.425.515.655.975.729 1.434.073.457-.005.94-.25 1.512a195.405 195.405 0 00-2.09 5.116l-.066.164a881 881 0 01-.821 2.058h0c-.073.184-.133.361-.199.558v.002l-.108.318h0l-.489 1.402-.175.503.499-.186 1.389-.518s0 0 0 0l.122-.044.106-.039h.002l.033-.013c.105-.038.19-.07.272-.106m-4.39-27.839l29.263 29.935M8.742 56.63H8.74l-.101-.228.103.228h-.001zm0 0l1.58-.694.896-.392h0l.61-.268a1074.98 1074.98 0 006.594-2.913m0 0c.675-.3 1.305-.314 2.006-.037h0l.093-.233m-2.1.27s0 0 0 0l-.101-.228m.102.228l-.102-.228m2.2-.042l-.091.233.118.047h.002c.883.35 1.81.715 2.767.99h0c7.555 2.169 14.936 1.562 21.926-1.806h0c.635-.307 1.24-.363 1.745-.219.501.144.926.493 1.197 1.043.27.55.287 1.1.095 1.584-.194.487-.609.932-1.24 1.245h0a32.89 32.89 0 01-10.482 3.182h0c-.556.072-1.115.133-1.704.198l-.227.024-.256.029-.755.083m-13.094-6.633c-.764-.3-1.463-.287-2.201.042m2.2-.042l.12.048c.885.35 1.802.71 2.745.982l-5.065-.988m15.295 6.591l.028.249m-.028-.249l.028.249m0 0l-.028-.249-1.527.172-.547.061.407.372 1.136 1.037h0c.116.105.22.203.319.297l.025.023.215-1.713zm0 0l-1.197.134 4.143-.47a84.7 84.7 0 01-1.71.2l-.225.024-.258.028c-.245.027-.495.054-.753.084zm-15.323-6.84c-2.19.98-4.421 1.959-6.593 2.912l-.61.268 7.203-3.18zm46.464-18.294l-.701-.8.04-.179-.244-.055-.188.165.12.138-.319 1.425c-.046.205-.082.363-.115.522l1.407-1.216zm0 0c.191.22.379.427.563.63m-.563-.63l.563.63M68.064 66.7h0l.642 1.592.23.57-.563-.248-1.571-.692h0a262.69 262.69 0 00-1.349-.59l-.631-.275c-1.493-.648-2.906-1.262-4.308-1.928h0c-.483-.231-.934-.346-1.405-.355-.474-.008-.983.09-1.584.306-3.012 1.082-5.947 1.624-8.796 1.624-5.226 0-10.136-1.824-14.668-5.45h0a9.9 9.9 0 01-.633-.566L68.064 66.7zm0 0c-.227-.561-.44-1.103-.647-1.631-.459-1.168-.895-2.279-1.386-3.37-.27-.6-.359-1.11-.284-1.598m2.317 6.599l-2.317-6.6m0 0c.075-.49.32-.984.772-1.539l-.772 1.539zm-.4-25.63l.023.026-.023-.026zM44.563 2.378C41.635 1.13 38.33.37 34.74.122l9.822 2.256zM6.837 56.809l-.194.073.087.234.236.082.069-.196 1.087-.405.118-.043-1.403.255z" fill="#4B8125" stroke="#fff" stroke-width=".5"/><path d="M31.99 37.32a2.116 2.116 0 001.433-.57c.354-.334.548-.764.557-1.211l.249.005-.25-.005c.02-1.106.366-1.914.862-2.52.492-.6 1.12-.988 1.684-1.274 3.473-1.766 5.487-4.775 5.697-8.48.01-3.41-1.394-6.539-3.847-8.59l.142-.17-.142.17a10 10 0 00-8.264-2.168L31.99 37.32zm0 0l-.102-.004c-1.088-.046-1.93-.91-1.93-1.958v0c0-1.64.363-3.038 1.074-4.197.71-1.159 1.778-2.093 3.211-2.79 2.079-1.012 3.322-2.475 3.757-4.47h0a6.098 6.098 0 00-.983-4.871h0a6.244 6.244 0 00-5.052-2.623c-1.43 0-2.838.518-3.957 1.47l3.981 19.444zm-9.298-13.002h0c.557.36 1.23.414 1.855.145l-1.855-.145zm0 0c-.58-.375-.937-1.034-.95-1.767m.95 1.767l-.95-1.767m0 0c-.078-4.821 3.518-9.144 8.37-10.044l-8.37 10.044zm4.089-.219a6.166 6.166 0 012.177-4.456l-2.177 4.456zm0 0c-.022.583-.138 1.022-.343 1.359m.343-1.359l-.343 1.359m0 0c-.203.332-.507.585-.941.773l.94-.773zm6.328 19.112a2.037 2.037 0 00-2.016 2.052l2.016-2.052zm0 0h.014c1.117 0 2.028.903 2.037 2.018a2.04 2.04 0 01-2.017 2.054h0-.001 0-.001 0-.001 0-.001 0-.001 0-.001 0-.001 0-.001 0-.001 0-.001 0-.001 0-.001 0-.001 0-.001 0-.001 0c-.536 0-1.04-.209-1.428-.589a2.02 2.02 0 01-.607-1.43l2.016-2.053z" fill="#4B8125" stroke="#fff" stroke-width=".5"/></svg>
